X:1
T:On neidolla punapaula
T:On neidolla punapaula
T:SATB
T:Uusmaalainen kansanlaulu
C:Uusmaalainen kansanlaulu
%%score [ 1 2 3 4 ]
L:1/8
Q:1/4=120
M:3/4
K:Bb
V:1 treble nm="Soprano" snm="S."
V:2 treble nm="Alto" snm="A."
V:3 bass nm="Tenor" snm="T."
V:4 bass nm="Bass" snm="B."
V:1
!p! F2 | B2 d c!<(! B A | G2 A2 B2 | F2 G2 A2!<)! |!mf! B3 z!mf! F2 |!>(! B2 d c B!>)!!pp! A | %6
w: On|nei- dol- la pu- na-|pau- la kun|tans- si- hin|käy. On|nei- dol- la pu- na-|
w: Miks'|niin lu- jal- le sä|sol- mit oi|ar- ma- ha-|ni! Miks'|niin lu- jal- le sä|
!<(! G2 A2 B2 | F2 G2 A2 | B3!<)! z!mf! F2 | !>!e4 c c | !>!d4 B B |!<(! c2 A2 c2!<)! |!f! f4 d2 | %13
w: pau- la kun|tans- si- hin|käy. käs'-|var- te- hen|kul- tan- sa|sol- mii hän|sen, käs'-|
w: sol- mit, oi|ar- ma- ha-|ni? Vai|luu- let- ko|et- tä mä|kar- ka- jan|pois, vai|
!>(! !>!e4 c c | !>!d4 B B | c2!>)!!p! A2 A2 | B4 z2 |] %17
w: var- te- hen|kul- tan- sa|sol- mii hän|sen.|
w: luu- let- ko|et- tä mä|kar- ka- jan|pois?|
V:2
!p! F2 | D2 D D!<(! D D | G2 F2 F2 | E3 E E2!<)! |!mf! D3 z!mf! D2 |!>(! D2 F F ^F!>)!!pp! F | %6
w: On|nei- dol- la pu- na-|pau- la kun|tans- si- hin|käy. On|nei- dol- la pu- na-|
w: Miks'|niin lu- jal- le sä|sol- mit oi|ar- ma- ha-|ni! Miks'|niin lu- jal- le sä|
!<(! G3 G G2 | F3 F E2 | D3!<)! z!mf! F2 | !>!F4 F F | !>!F3 F F2 |!<(! F3 F F2!<)! |!f! F4 F2 | %13
w: pau- la kun|tans- si- hin|käy. käs'-|var- te- hen|kul- tan- sa|sol- mii hän|sen, käs'-|
w: sol- mit, oi|ar- ma- ha-|ni? Vai|luu- let- ko|et- tä mä|kar- ka- jan|pois, vai|
!>(! !>!E3 E E2 | !>!D4 D D | C2!>)!!p! C2 E2 | D4 z2 |] %17
w: var- te- hen|kul- tan- sa|sol- mii hän|sen.|
w: luu- let- ko|et- tä mä|kar- ka- jan|pois?|
V:3
!p! !^!F,2 | F,2 F, F,!<(! B, B, | B,2 C2 B,2 | A,2 B,2 C2!<)! |!mf! B,3 z!mf! B,2 | %5
w: On|nei- dol- la pu- na-|pau- la kun|tans- si- hin|käy. On|
w: Miks'|niin lu- jal- le sä|sol- mit oi|ar- ma- ha-|ni! Miks'|
!>(! B,2 B, B, C!>)!!pp! C |!<(! B,2 C2 ^C2 | D3 D C2 | B,2 B, C!<)!!mf! D B, | B,3 D E C | %10
w: nei- dol- la pu- na-|pau- la kun|tans- si- hin|käy. Kä- si- var- te-|hen nyt o- man|
w: niin lu- jal- le sä|sol- mit, oi|ar- ma- ha-|ni? Vai- ko luu- let,|vai- ko luu- let|
 !>!B,4 D D |!<(! E2 C2 A,2!<)! |!f! B,4 B,2 |!>(! !>!B,3 B, A,2 | !>!C3 C B, A, | %15
w: kul- tan- sa|sol- mii hän|sen, käs'-|var- te- hen|kul- lal- len- sa|
w: et- tä mä|kar- ka- jan|pois, vai|luu- let- ko|et- tä mi- nä|
 G,2!>)!!p! F,2 F,2 | F,4 z2 |] %17
w: sol- mii hän|sen.|
w: kar- ka- jan|pois?|
V:4
!p! !^!F,2 | B,,4!<(! B,,2 | E,4 D,2 | C,3 C, F,2!<)! |!mf! B,2 D C!mf! B, A, | %5
w: On|nei- to-|sel- la|pau- la, on|nei- dol- la pu- na-|
w: Miks'|lu- jal-|le sä|sol- mit, miks|niin lu- jal- le sä|
!>(! G,2 D,2!>)! D,2 |!<(! E,3 E, =E,2 | F,4 F,2 | B,,3!<)! z z2 | z2!mf!!>(! F,2 F, z!>)! | %10
w: pau- la kun|tans- si- hin,|tans- siin|käy.|var- teen|
w: sol- mit, oi|ar- ma- hin|ar- maa-|ni?|Luu- let,|
 z2 F,2 F, F, |!<(! F,3 F, E,2!<)! |!f! D,2 D C B, A, |!>(! !>!G,3 G, G,2 | !>!^F,2 D,2 G, =F, | %15
w: kul- tan- sa|sol- mii hän|sen, kä- si- var- te-|hen- pa nyt|kul- lal- len- sa|
w: et- tä mä|kar- ka- jan|pois, vai- ko luu- let|tot- ta- kin|et- tä mi- nä|
 E,2!>)!!p! F,2 F,2 | B,,4 z2 |] %17
w: sol- mii hän|sen.|
w: kar- ka- jan|pois?|

